input/symbols/flags/BhjFlag_Polypi.svg

<?xml version="1.0" encoding="UTF-8"?>
<svg viewBox="0 0 1e3 1e3" xmlns="http://www.w3.org/2000/svg">
 <defs>
  <style>.cls-1,.cls-10,.cls-2{fill:none;}.cls-1{stroke:#333;stroke-width:2px;}.cls-1,.cls-10{stroke-miterlimit:10;}.cls-3{clip-path:url(#clip-path);}.cls-4{fill:#e32026;}.cls-5{fill:#936026;}.cls-6{fill:#3a53a4;}.cls-7{fill:#ed2224;}.cls-8{fill:#010101;}.cls-9{fill:#f6eb16;}.cls-10{stroke:#fff;stroke-width:10px;}.cls-11{fill:#55899b;}.cls-12{fill:#2e162e;}.cls-13{clip-path:url(#clip-path-2);}.cls-14{fill:#e5e6e6;}.cls-15{fill:#2f172e;}.cls-16{clip-path:url(#clip-path-3);}</style>
  <clipPath id="clip-path">
   <path class="cls-1" d="m-139.72-923.84c-146.28-147.47-346.09-81.75-412.78 133.6-1 3.33-3.72 3.44-5.93 0.26-154.52-222.62-418.55-228.54-447.5 53.2-42.67 415.35 247.53 482.6 494.1 237.06 2.72-2.71 21.44-3 24.92 0.28 268.53 255.49 646.31-76.76 347.19-424.4zm-743.84 344.73c-182.71-176.89 96.33-345.61 214-145.09 4.37 7.46 7.39 17.46 8.27 29.75 7.61 106.17-157.98 177.59-222.27 115.34zm690.21-89c-64.36 143.47-257.52 111.37-313.13-41.58-12.77-230.53 347.2-217.07 313.13 41.61z"/>
  </clipPath>
  <clipPath id="clip-path-2">
   <path class="cls-2" d="M823.31,903c7.72-56.12,3.26-108.64-7.62-164.2-12.19-62.24-26.81-128.57-71.63-172.15-16.2-15.75-35.58-27.64-55.61-37.69-36.22-18.17-75.53-30.79-115.78-32.48s-81.54,8.07-114.83,31.43c-32.77,23-56.23,57.77-73.68,94.44S354.6,698.09,339.74,736a817.83,817.83,0,0,1-82.5,157.37c-1.61,2.4-3.28,4.92-3.56,7.82s1,5.86,2.3,8.5c12.23,24.1,35.07,41.07,59.67,50.94s51.11,13.35,77.36,16.27c84.26,9.36,169.52,13.61,253.67,3.26,64.93-8,132.9-27.07,176.63-77.14"/>
  </clipPath>
  <clipPath id="clip-path-3">
   <path class="cls-2" d="M823.31-117c7.72-56.12,3.26-108.64-7.62-164.2-12.19-62.24-26.81-128.57-71.63-172.15-16.2-15.75-35.58-27.64-55.61-37.69-36.22-18.17-75.53-30.79-115.78-32.48s-81.54,8.07-114.83,31.43c-32.77,23-56.23,57.77-73.68,94.44S354.6-321.91,339.74-284a817.83,817.83,0,0,1-82.5,157.37c-1.61,2.4-3.28,4.92-3.56,7.82s1,5.86,2.3,8.5c12.23,24.1,35.07,41.07,59.67,50.94S366.76-46.06,393-43.14c84.26,9.36,169.52,13.61,253.67,3.26,64.93-8,132.9-27.07,176.63-77.14"/>
  </clipPath>
 </defs>
 <g id="Layer_12" data-name="Layer 12">
  <g id="Layer_17" data-name="Layer 17">
   <g class="cls-3">
    <path class="cls-4" d="M-416.16-1651.17c51.76-10.54,103.54-21,155.26-31.74,4.44-.92,5.87-.21,7.07,5.06q134.18,591.51,268.63,1183Q77.85-217.44,141,60c1.2,5.27.2,6.48-4.25,7.37C85,77.71,33.2,88.32-18.57,98.86Z"/>
   </g>
   <path class="cls-1" d="m-139.72-923.84c-146.28-147.47-346.09-81.75-412.78 133.6-1 3.33-3.72 3.44-5.93 0.26-154.52-222.62-418.55-228.54-447.5 53.2-42.67 415.35 247.53 482.6 494.1 237.06 2.72-2.71 21.44-3 24.92 0.28 268.53 255.49 646.31-76.76 347.19-424.4zm-743.84 344.73c-182.71-176.89 96.33-345.61 214-145.09 4.37 7.46 7.39 17.46 8.27 29.75 7.61 106.17-157.98 177.59-222.27 115.34zm690.21-89c-64.36 143.47-257.52 111.37-313.13-41.58-12.77-230.53 347.2-217.07 313.13 41.61z"/>
  </g>
 </g>
 <g id="Layer_20" data-name="Layer 20">
  <path class="cls-5" d="m945.28 509.31c-27.64 150.15-54.06 299.69-115.22 444.15-3.27 7.73 21.63 10.75 25 3 74.52-170.9 104.09-332.54 117.27-496.66"/>
  <path class="cls-6" d="M32.46,120.32c312.81,177.54,629-211.69,948.68-85.93q-.35,87.48-1.21,175.2C671.09,70.94,365.68,446.08,63.68,289.87Q48.32,205.39,32.46,120.32Z"/>
  <path class="cls-7" d="M63.68,289.87c302,156.2,607.41-218.93,916.25-80.28q-.85,87.71-2.23,175.62c-298-150.9-592.63,209.61-883.83,73.06Q79,374.33,63.68,289.87Z"/>
  <path class="cls-8" d="m93.87 458.27c291.2 136.55 585.81-224 883.83-73.06q-1.37 87.9-3.24 176c-287.21-162.48-571 182.95-851.4 64.43q-14.34-83.45-29.19-167.37z"/>
  <path class="cls-9" d="M487.3,394.05c-.62-6.48,1.33-12.86,2.86-20.38Q497,344.1,504,314.43c1.16-5.07.32-7.07-6.61-4.52-20.78,7.64-30.73,15.8-36.39,36.35-.5,1.46-.27,3.7-2.77,4.58s-4.72-1.7-5.37-7.91c-1.39-13.22,8.55-36,48.09-50.59,13.91-5.13,28.83-9.94,42.81-14.35,10.79-3.49,20.64-6.59,29.5-9.81a66.22,66.22,0,0,0,18.69-10.85c3.36-3,5.17-4.93,6.75-5.49,3.17-1.11,4,.69,4.34,6.25.5,7.07-5.49,18.47-10.21,20.14-8.2,2.9-18,5.42-22.15,6.92-6.62,2.41-9.08,4.09-9.8,11.33-.71,7.49-4.3,39-3.52,48.83.49,6,6,6.61,11.89,4.72a35.76,35.76,0,0,0,10.17-4.95c2.43-1.65,3.93-3,4.55-3.18,2.8-1,3.2.16,3.39,2.68.59,8.33-5.32,23.32-20.15,28.68-10.2,3.69-19.81-1-21.14-17.08-1-12,4-49.51,3.34-57.29-.25-3-2.39-5.32-5.23-4.27l-23.69,8c-4.11,1.27-6.18,3.58-7.1,7.79-6.86,31.71-7.65,50.57-7.21,62.53a56.74,56.74,0,0,0,2.7,15.52c1.31,3.91,1.82,6-2.5,7.63-4,1.48-18.69,1.67-19.05-2.07Z"/>
  <path class="cls-10" d="m977.7 385.21q1.37-87.91 2.23-175.62t1.21-175.2c-319.64-125.76-635.87 263.47-948.68 85.93q15.87 85.08 31.22 169.55t30.19 168.4q14.85 83.93 29.19 167.35c280.38 118.52 564.19-226.91 851.4-64.43q1.88-88.08 3.24-175.98z"/>
 </g>
 <g id="Layer_21" data-name="Layer 21">
  <path class="cls-11" d="M823.31,903c7.72-56.12,3.26-108.64-7.62-164.2-12.19-62.24-26.81-128.57-71.63-172.15-16.2-15.75-35.58-27.64-55.61-37.69-36.22-18.17-75.53-30.79-115.78-32.48s-81.54,8.07-114.83,31.43c-32.77,23-56.23,57.77-73.68,94.44S354.6,698.09,339.74,736a817.83,817.83,0,0,1-82.5,157.37c-1.61,2.4-3.28,4.92-3.56,7.82s1,5.86,2.3,8.5c12.23,24.1,35.07,41.07,59.67,50.94s51.11,13.35,77.36,16.27c84.26,9.36,169.52,13.61,253.67,3.26,64.93-8,132.9-27.07,176.63-77.14"/>
  <ellipse class="cls-12" cx="465.23" cy="741.21" rx="52.8" ry="54.39"/>
  <path class="cls-11" d="m791.13 692.4c20.91-4.12 43.08-2.64 63.91 1.75 26.18 5.52 52.66 17.14 63.23 37.12 10.4 19.65 2.61 43.05-13 60.33s-38 29.7-60 41.76l-76.05 41.76"/>
  <g class="cls-13">
   <path class="cls-14" d="m460.05 989.11c80.68-91.22 94.6-251.14 78.48-368.87-15.4-52-22.1-114.34 35.49-136.15 171.19-90.09 315.71 52.79 292.44 235.42-23.21 80.44 2.07 178.14-41.89 248.7-56 87.52-343.9 140.11-358.54 11.24"/>
  </g>
  <path class="cls-15" d="M586.36,585.78a4.47,4.47,0,0,0,.34.76c-.07,0-.62-1.52-.18-.4l.54,1.36c.39,1,.75,2.1,1.09,3.17.66,2.06,1.21,4.15,1.69,6.27s.87,4.12,1.22,6.2c.18,1.05.34,2.09.5,3.14l.21,1.48.12.84c.2,1.45-.15-1.13,0-.27,1.16,9.06,2,18.22,4,27.14a75.43,75.43,0,0,0,5.17,15,6.46,6.46,0,0,0,5.67,3.25,6.67,6.67,0,0,0,5.67-3.25l21.46-35.14,5.33-8.73c.4-.65.79-1.31,1.2-2,.18-.28.36-.56.55-.83.68-1,.17.21-.19.22.1,0,.58-.59.68-.7.57-.64-1.37.92-.25.22s-1.06.22-.25.11c1.64-.21-1.28-.15,0,0,.27,0,.56,0,.83,0,1.45,0-1.5-.4-.09,0,.62.18,1.25.3,1.86.49,1.56.48,3.1,1,4.64,1.55q4.84,1.62,9.73,3.14,9.52,3,19.16,5.58c6.58,1.78,13.62,4.16,20.51,3.81s13.77-3.54,17.22-9.73a17.29,17.29,0,0,0,1.64-11.94,50.37,50.37,0,0,0-2.81-8.61,151,151,0,0,0-20.28-37,7.2,7.2,0,0,0-3.92-3,6.71,6.71,0,0,0-5.06.66c-2.71,1.75-4.57,6.05-2.36,9a144.85,144.85,0,0,1,10,15.07c1.46,2.56,2.85,5.15,4.16,7.79.62,1.26,1.23,2.52,1.81,3.8.28.6.55,1.2.82,1.81.18.41.36.81.53,1.22s.87,1.59,0,.06A32.59,32.59,0,0,1,701,591.5c.53,1.38,1,2.77,1.52,4.16a38.34,38.34,0,0,1,1.29,4.45c.3,1.32-.07-.38,0-.37s0,1.24,0,1.38c0,.73-.44.62.11-.57a8.16,8.16,0,0,0-.25,1l-.11.33q-.35,1,.27-.6a4,4,0,0,0-.31.62c-.17.31-.37.59-.56.89-.36.58-.44,0,.38-.5a10.48,10.48,0,0,0-1.23,1.26c-.72.72.38-.29.49-.35-.35.17-.69.49-1,.7a11.37,11.37,0,0,0-1.42.77l.91-.38-.67.25-.67.22a17.94,17.94,0,0,0-2,.42l.81-.12c-.23,0-.47,0-.7.06-.55,0-1.1.05-1.65,0s-1.41-.06-2.12-.13l-.23,0c-.74-.09-.63-.07.33.05a5.59,5.59,0,0,0-.94-.15c-1.73-.3-3.44-.72-5.13-1.14q-4.73-1.2-9.4-2.49-9.51-2.61-18.9-5.57-4.65-1.47-9.26-3c-3.22-1.08-6.52-2.32-10-2.15-4.74.22-8.2,2.71-10.86,6.48-1.81,2.57-3.34,5.38-5,8.06L601,643.87h11.34c-.24-.5-.43-1-.7-1.53,0,0,.53,1.28.26.61l-.31-.78c-.41-1-.79-2.08-1.14-3.14-.69-2-1.27-4.13-1.77-6.23-1-4.18-1.67-8.43-2.27-12.68-.12-.89.18,1.37.06.48,0-.21,0-.42-.08-.63l-.21-1.69c-.15-1.13-.28-2.26-.42-3.39-.27-2.19-.53-4.38-.82-6.56-.62-4.71-1.28-9.42-2.29-14.06a78.8,78.8,0,0,0-5-15.12,6.59,6.59,0,0,0-3.93-3,6.73,6.73,0,0,0-5.06.67,6.58,6.58,0,0,0-3,3.92,7.54,7.54,0,0,0,.66,5.06Z"/>
  <g class="cls-16">
   <path class="cls-14" d="M460.05-30.89c80.68-91.22,94.6-251.14,78.48-368.87-15.4-52-22.1-114.34,35.49-136.15C745.21-626,889.73-483.12,866.46-300.49c-23.21,80.44,2.07,178.14-41.89,248.7C768.61,35.73,480.67,88.32,466-40.55"/>
  </g>
 </g>
</svg>

<svg xmlns="http://www.w3.org/2000/svg" xmlns:xlink="http://www.w3.org/1999/xlink" viewBox="0 0 1000 1000"><defs><style>.cls-1,.cls-10,.cls-2{fill:none;}.cls-1{stroke:#333;stroke-width:2px;}.cls-1,.cls-10{stroke-miterlimit:10;}.cls-3{clip-path:url(#clip-path);}.cls-4{fill:#e32026;}.cls-5{fill:#936026;}.cls-6{fill:#3a53a4;}.cls-7{fill:#ed2224;}.cls-8{fill:#010101;}.cls-9{fill:#f6eb16;}.cls-10{stroke:#fff;stroke-width:10px;}.cls-11{fill:#55899b;}.cls-12{fill:#2e162e;}.cls-13{clip-path:url(#clip-path-2);}.cls-14{fill:#e5e6e6;}.cls-15{fill:#2f172e;}.cls-16{clip-path:url(#clip-path-3);}</style><clipPath id="clip-path"><path class="cls-1" d="M-139.72-923.84C-286-1071.31-485.81-1005.59-552.5-790.24c-1,3.33-3.72,3.44-5.93.26-154.52-222.62-418.55-228.54-447.5,53.2-42.67,415.35,247.53,482.6,494.1,237.06,2.72-2.71,21.44-3,24.92.28C-218.38-243.95,159.4-576.2-139.72-923.84ZM-883.56-579.11c-182.71-176.89,96.33-345.61,214-145.09,4.37,7.46,7.39,17.46,8.27,29.75C-653.68-588.28-819.27-516.86-883.56-579.11Zm690.21-89c-64.36,143.47-257.52,111.37-313.13-41.58C-519.25-940.22-159.28-926.76-193.35-668.08Z"/></clipPath><clipPath id="clip-path-2"><path class="cls-2" d="M823.31,903c7.72-56.12,3.26-108.64-7.62-164.2-12.19-62.24-26.81-128.57-71.63-172.15-16.2-15.75-35.58-27.64-55.61-37.69-36.22-18.17-75.53-30.79-115.78-32.48s-81.54,8.07-114.83,31.43c-32.77,23-56.23,57.77-73.68,94.44S354.6,698.09,339.74,736a817.83,817.83,0,0,1-82.5,157.37c-1.61,2.4-3.28,4.92-3.56,7.82s1,5.86,2.3,8.5c12.23,24.1,35.07,41.07,59.67,50.94s51.11,13.35,77.36,16.27c84.26,9.36,169.52,13.61,253.67,3.26,64.93-8,132.9-27.07,176.63-77.14"/></clipPath><clipPath id="clip-path-3"><path class="cls-2" d="M823.31-117c7.72-56.12,3.26-108.64-7.62-164.2-12.19-62.24-26.81-128.57-71.63-172.15-16.2-15.75-35.58-27.64-55.61-37.69-36.22-18.17-75.53-30.79-115.78-32.48s-81.54,8.07-114.83,31.43c-32.77,23-56.23,57.77-73.68,94.44S354.6-321.91,339.74-284a817.83,817.83,0,0,1-82.5,157.37c-1.61,2.4-3.28,4.92-3.56,7.82s1,5.86,2.3,8.5c12.23,24.1,35.07,41.07,59.67,50.94S366.76-46.06,393-43.14c84.26,9.36,169.52,13.61,253.67,3.26,64.93-8,132.9-27.07,176.63-77.14"/></clipPath></defs><g id="Layer_12" data-name="Layer 12"><g id="Layer_17" data-name="Layer 17"><g class="cls-3"><path class="cls-4" d="M-416.16-1651.17c51.76-10.54,103.54-21,155.26-31.74,4.44-.92,5.87-.21,7.07,5.06q134.18,591.51,268.63,1183Q77.85-217.44,141,60c1.2,5.27.2,6.48-4.25,7.37C85,77.71,33.2,88.32-18.57,98.86Z"/></g><path class="cls-1" d="M-139.72-923.84C-286-1071.31-485.81-1005.59-552.5-790.24c-1,3.33-3.72,3.44-5.93.26-154.52-222.62-418.55-228.54-447.5,53.2-42.67,415.35,247.53,482.6,494.1,237.06,2.72-2.71,21.44-3,24.92.28C-218.38-243.95,159.4-576.2-139.72-923.84ZM-883.56-579.11c-182.71-176.89,96.33-345.61,214-145.09,4.37,7.46,7.39,17.46,8.27,29.75C-653.68-588.28-819.27-516.86-883.56-579.11Zm690.21-89c-64.36,143.47-257.52,111.37-313.13-41.58C-519.25-940.22-159.28-926.76-193.35-668.08Z"/></g></g><g id="Layer_20" data-name="Layer 20"><path class="cls-5" d="M945.28,509.31C917.64,659.46,891.22,809,830.06,953.46c-3.27,7.73,21.63,10.75,25,3C929.58,785.56,959.15,623.92,972.33,459.8"/><path class="cls-6" d="M32.46,120.32c312.81,177.54,629-211.69,948.68-85.93q-.35,87.48-1.21,175.2C671.09,70.94,365.68,446.08,63.68,289.87Q48.32,205.39,32.46,120.32Z"/><path class="cls-7" d="M63.68,289.87c302,156.2,607.41-218.93,916.25-80.28q-.85,87.71-2.23,175.62c-298-150.9-592.63,209.61-883.83,73.06Q79,374.33,63.68,289.87Z"/><path class="cls-8" d="M93.87,458.27c291.2,136.55,585.81-224,883.83-73.06q-1.37,87.9-3.24,176c-287.21-162.48-571,182.95-851.4,64.43Q108.72,542.19,93.87,458.27Z"/><path class="cls-9" d="M487.3,394.05c-.62-6.48,1.33-12.86,2.86-20.38Q497,344.1,504,314.43c1.16-5.07.32-7.07-6.61-4.52-20.78,7.64-30.73,15.8-36.39,36.35-.5,1.46-.27,3.7-2.77,4.58s-4.72-1.7-5.37-7.91c-1.39-13.22,8.55-36,48.09-50.59,13.91-5.13,28.83-9.94,42.81-14.35,10.79-3.49,20.64-6.59,29.5-9.81a66.22,66.22,0,0,0,18.69-10.85c3.36-3,5.17-4.93,6.75-5.49,3.17-1.11,4,.69,4.34,6.25.5,7.07-5.49,18.47-10.21,20.14-8.2,2.9-18,5.42-22.15,6.92-6.62,2.41-9.08,4.09-9.8,11.33-.71,7.49-4.3,39-3.52,48.83.49,6,6,6.61,11.89,4.72a35.76,35.76,0,0,0,10.17-4.95c2.43-1.65,3.93-3,4.55-3.18,2.8-1,3.2.16,3.39,2.68.59,8.33-5.32,23.32-20.15,28.68-10.2,3.69-19.81-1-21.14-17.08-1-12,4-49.51,3.34-57.29-.25-3-2.39-5.32-5.23-4.27l-23.69,8c-4.11,1.27-6.18,3.58-7.1,7.79-6.86,31.71-7.65,50.57-7.21,62.53a56.74,56.74,0,0,0,2.7,15.52c1.31,3.91,1.82,6-2.5,7.63-4,1.48-18.69,1.67-19.05-2.07Z"/><path class="cls-10" d="M977.7,385.21q1.37-87.91,2.23-175.62t1.21-175.2C661.5-91.37,345.27,297.86,32.46,120.32Q48.33,205.4,63.68,289.87t30.19,168.4q14.85,83.93,29.19,167.35c280.38,118.52,564.19-226.91,851.4-64.43Q976.34,473.11,977.7,385.21Z"/></g><g id="Layer_21" data-name="Layer 21"><path class="cls-11" d="M823.31,903c7.72-56.12,3.26-108.64-7.62-164.2-12.19-62.24-26.81-128.57-71.63-172.15-16.2-15.75-35.58-27.64-55.61-37.69-36.22-18.17-75.53-30.79-115.78-32.48s-81.54,8.07-114.83,31.43c-32.77,23-56.23,57.77-73.68,94.44S354.6,698.09,339.74,736a817.83,817.83,0,0,1-82.5,157.37c-1.61,2.4-3.28,4.92-3.56,7.82s1,5.86,2.3,8.5c12.23,24.1,35.07,41.07,59.67,50.94s51.11,13.35,77.36,16.27c84.26,9.36,169.52,13.61,253.67,3.26,64.93-8,132.9-27.07,176.63-77.14"/><ellipse class="cls-12" cx="465.23" cy="741.21" rx="52.8" ry="54.39"/><path class="cls-11" d="M791.13,692.4c20.91-4.12,43.08-2.64,63.91,1.75,26.18,5.52,52.66,17.14,63.23,37.12,10.4,19.65,2.61,43.05-13,60.33s-38,29.7-60,41.76l-76.05,41.76"/><g class="cls-13"><path class="cls-14" d="M460.05,989.11c80.68-91.22,94.6-251.14,78.48-368.87-15.4-52-22.1-114.34,35.49-136.15C745.21,394,889.73,536.88,866.46,719.51c-23.21,80.44,2.07,178.14-41.89,248.7-56,87.52-343.9,140.11-358.54,11.24"/></g><path class="cls-15" d="M586.36,585.78a4.47,4.47,0,0,0,.34.76c-.07,0-.62-1.52-.18-.4l.54,1.36c.39,1,.75,2.1,1.09,3.17.66,2.06,1.21,4.15,1.69,6.27s.87,4.12,1.22,6.2c.18,1.05.34,2.09.5,3.14l.21,1.48.12.84c.2,1.45-.15-1.13,0-.27,1.16,9.06,2,18.22,4,27.14a75.43,75.43,0,0,0,5.17,15,6.46,6.46,0,0,0,5.67,3.25,6.67,6.67,0,0,0,5.67-3.25l21.46-35.14,5.33-8.73c.4-.65.79-1.31,1.2-2,.18-.28.36-.56.55-.83.68-1,.17.21-.19.22.1,0,.58-.59.68-.7.57-.64-1.37.92-.25.22s-1.06.22-.25.11c1.64-.21-1.28-.15,0,0,.27,0,.56,0,.83,0,1.45,0-1.5-.4-.09,0,.62.18,1.25.3,1.86.49,1.56.48,3.1,1,4.64,1.55q4.84,1.62,9.73,3.14,9.52,3,19.16,5.58c6.58,1.78,13.62,4.16,20.51,3.81s13.77-3.54,17.22-9.73a17.29,17.29,0,0,0,1.64-11.94,50.37,50.37,0,0,0-2.81-8.61,151,151,0,0,0-20.28-37,7.2,7.2,0,0,0-3.92-3,6.71,6.71,0,0,0-5.06.66c-2.71,1.75-4.57,6.05-2.36,9a144.85,144.85,0,0,1,10,15.07c1.46,2.56,2.85,5.15,4.16,7.79.62,1.26,1.23,2.52,1.81,3.8.28.6.55,1.2.82,1.81.18.41.36.81.53,1.22s.87,1.59,0,.06A32.59,32.59,0,0,1,701,591.5c.53,1.38,1,2.77,1.52,4.16a38.34,38.34,0,0,1,1.29,4.45c.3,1.32-.07-.38,0-.37s0,1.24,0,1.38c0,.73-.44.62.11-.57a8.16,8.16,0,0,0-.25,1l-.11.33q-.35,1,.27-.6a4,4,0,0,0-.31.62c-.17.31-.37.59-.56.89-.36.58-.44,0,.38-.5a10.48,10.48,0,0,0-1.23,1.26c-.72.72.38-.29.49-.35-.35.17-.69.49-1,.7a11.37,11.37,0,0,0-1.42.77l.91-.38-.67.25-.67.22a17.94,17.94,0,0,0-2,.42l.81-.12c-.23,0-.47,0-.7.06-.55,0-1.1.05-1.65,0s-1.41-.06-2.12-.13l-.23,0c-.74-.09-.63-.07.33.05a5.59,5.59,0,0,0-.94-.15c-1.73-.3-3.44-.72-5.13-1.14q-4.73-1.2-9.4-2.49-9.51-2.61-18.9-5.57-4.65-1.47-9.26-3c-3.22-1.08-6.52-2.32-10-2.15-4.74.22-8.2,2.71-10.86,6.48-1.81,2.57-3.34,5.38-5,8.06L601,643.87h11.34c-.24-.5-.43-1-.7-1.53,0,0,.53,1.28.26.61l-.31-.78c-.41-1-.79-2.08-1.14-3.14-.69-2-1.27-4.13-1.77-6.23-1-4.18-1.67-8.43-2.27-12.68-.12-.89.18,1.37.06.48,0-.21,0-.42-.08-.63l-.21-1.69c-.15-1.13-.28-2.26-.42-3.39-.27-2.19-.53-4.38-.82-6.56-.62-4.71-1.28-9.42-2.29-14.06a78.8,78.8,0,0,0-5-15.12,6.59,6.59,0,0,0-3.93-3,6.73,6.73,0,0,0-5.06.67,6.58,6.58,0,0,0-3,3.92,7.54,7.54,0,0,0,.66,5.06Z"/><g class="cls-16"><path class="cls-14" d="M460.05-30.89c80.68-91.22,94.6-251.14,78.48-368.87-15.4-52-22.1-114.34,35.49-136.15C745.21-626,889.73-483.12,866.46-300.49c-23.21,80.44,2.07,178.14-41.89,248.7C768.61,35.73,480.67,88.32,466-40.55"/></g></g></svg>
